polaris-icons/icons/new-icons/LanguageMinor.svg

<svg width="20" height="20" viewBox="0 0 20 20" fill="none" xmlns="http://www.w3.org/2000/svg">
<path fill-rule="evenodd" clip-rule="evenodd" d="M8 16.25V14.25H5.5C4.39543 14.25 3.5 13.3546 3.5 12.25V6.25C3.5 5.14543 4.39543 4.25 5.5 4.25H14.5C15.6046 4.25 16.5 5.14543 16.5 6.25V12.25C16.5 13.3546 15.6046 14.25 14.5 14.25H10L8 16.25ZM10.6213 15.75H14.5C16.433 15.75 18 14.183 18 12.25V6.25C18 4.317 16.433 2.75 14.5 2.75H5.5C3.567 2.75 2 4.317 2 6.25V12.25C2 14.183 3.567 15.75 5.5 15.75H6.5V16.25C6.5 16.8567 6.86546 17.4036 7.42597 17.6358C7.98649 17.868 8.63166 17.7397 9.06066 17.3107L10.6213 15.75ZM7.5 5C7.80668 5 8.08246 5.18671 8.19636 5.47146L10.1964 10.4715C10.3502 10.856 10.1631 11.2925 9.77854 11.4464C9.39396 11.6002 8.95748 11.4131 8.80364 11.0285L8.59223 10.5H6.40777L6.19636 11.0285C6.04252 11.4131 5.60604 11.6002 5.22146 11.4464C4.83687 11.2925 4.64981 10.856 4.80364 10.4715L6.80364 5.47146C6.91754 5.18671 7.19332 5 7.5 5ZM7.99223 9L7.5 7.76944L7.00777 9H7.99223ZM12.5 6.5C12.9142 6.5 13.25 6.83579 13.25 7.25C13.25 7.56358 13.2169 7.9985 13.1351 8.5H14.5C14.8126 8.5 15.0925 8.69393 15.2022 8.98666C16.1 11.3807 14.6225 13.25 13 13.25C12.5858 13.25 12.25 12.9142 12.25 12.5C12.25 12.0858 12.5858 11.75 13 11.75C13.3368 11.75 14.1867 11.2482 13.9389 10H12.7765C12.4512 11.0204 11.9107 12.15 11.0303 13.0303C10.7374 13.3232 10.2626 13.3232 9.96967 13.0303C9.67678 12.7374 9.67678 12.2626 9.96967 11.9697C10.5109 11.4284 10.9071 10.7271 11.1874 10H11C10.5858 10 10.25 9.66421 10.25 9.25C10.25 8.83579 10.5858 8.5 11 8.5H11.6119C11.7132 7.97037 11.75 7.52362 11.75 7.25C11.75 6.83579 12.0858 6.5 12.5 6.5Z" fill="#4A4A4A"/>
</svg>

<svg viewBox="0 0 20 20" xmlns="http://www.w3.org/2000/svg"><path fill-rule="evenodd" d="M8 16.25v-2h-2.5a2 2 0 0 1-2-2v-6a2 2 0 0 1 2-2h9a2 2 0 0 1 2 2v6a2 2 0 0 1-2 2h-4.5l-2 2Zm2.621-.5h3.879a3.5 3.5 0 0 0 3.5-3.5v-6a3.5 3.5 0 0 0-3.5-3.5h-9a3.5 3.5 0 0 0-3.5 3.5v6a3.5 3.5 0 0 0 3.5 3.5h1v.5a1.5 1.5 0 0 0 2.56 1.06l1.561-1.56Zm-3.121-10.75a.75.75 0 0 1 .696.471l2 5a.75.75 0 0 1-1.392.557l-.212-.528h-2.184l-.212.528a.75.75 0 0 1-1.392-.556l2-5a.75.75 0 0 1 .696-.472Zm.492 4-.492-1.23-.492 1.23h.984Zm4.508-2.5a.75.75 0 0 1 .75.75c0 .314-.033.748-.115 1.25h1.365a.75.75 0 0 1 .702.487c.898 2.394-.58 4.263-2.202 4.263a.75.75 0 0 1 0-1.5c.337 0 1.187-.502.939-1.75h-1.162c-.326 1.02-.866 2.15-1.747 3.03a.75.75 0 1 1-1.06-1.06c.54-.542.937-1.243 1.217-1.97h-.187a.75.75 0 0 1 0-1.5h.612c.101-.53.138-.976.138-1.25a.75.75 0 0 1 .75-.75Z" fill="#5C5F62"/></svg>
